static/assets/images/icons/discord.svg

<svg width="256" height="256" viewBox="0 0 256 256" fill="none" xmlns="http://www.w3.org/2000/svg">
<path d="M206.471 58.0162C192.128 51.5383 176.753 46.7503 160.675 44.0277C160.532 44.0002 160.384 44.0179 160.251 44.0785C160.119 44.139 160.008 44.2394 159.935 44.3657C157.966 47.8299 155.772 52.3457 154.235 55.9132C137.183 53.3619 119.847 53.3619 102.796 55.9132C101.083 51.9595 99.1522 48.1043 97.0115 44.3657C96.939 44.2378 96.8292 44.1352 96.6969 44.0714C96.5646 44.0077 96.416 43.9859 96.2709 44.0089C80.2027 46.7315 64.8281 51.5195 50.4754 58.0068C50.3519 58.0587 50.2472 58.1472 50.1754 58.2603C21.0012 101.212 13.0046 143.102 16.9326 184.467C16.9435 184.568 16.9749 184.666 17.0249 184.755C17.0749 184.844 17.1423 184.921 17.2232 184.983C34.2514 197.398 53.2441 206.856 73.406 212.96C73.5465 213.004 73.6968 213.003 73.8373 212.96C73.9778 212.916 74.1019 212.831 74.1934 212.716C78.532 206.905 82.3766 200.741 85.6869 194.287C85.7328 194.199 85.7593 194.102 85.7645 194.002C85.7697 193.903 85.7536 193.804 85.7171 193.711C85.6807 193.618 85.6248 193.535 85.5533 193.466C85.4817 193.397 85.3962 193.344 85.3025 193.311C79.2465 191.027 73.3786 188.271 67.753 185.068C67.6519 185.01 67.5667 184.928 67.5051 184.829C67.4435 184.73 67.4073 184.617 67.3999 184.501C67.3925 184.385 67.414 184.268 67.4625 184.163C67.5111 184.057 67.5851 183.964 67.678 183.894C68.8592 183.021 70.0404 182.11 71.1654 181.2C71.2667 181.118 71.3886 181.066 71.5178 181.049C71.6469 181.033 71.778 181.052 71.8966 181.106C108.711 197.667 148.582 197.667 184.965 181.106C185.084 181.049 185.217 181.027 185.348 181.042C185.479 181.057 185.603 181.108 185.706 181.19C186.831 182.11 188.003 183.021 189.193 183.894C189.287 183.963 189.362 184.054 189.412 184.159C189.463 184.264 189.486 184.38 189.48 184.496C189.475 184.612 189.44 184.725 189.38 184.825C189.321 184.925 189.237 185.008 189.137 185.068C183.531 188.297 177.7 191.029 171.578 193.301C171.484 193.335 171.398 193.389 171.327 193.459C171.255 193.529 171.199 193.614 171.163 193.707C171.127 193.8 171.111 193.9 171.116 194C171.121 194.1 171.148 194.198 171.194 194.287C174.569 200.737 178.431 206.877 182.678 212.707C182.766 212.826 182.889 212.916 183.03 212.963C183.171 213.01 183.323 213.012 183.465 212.97C203.662 206.883 222.685 197.421 239.732 184.983C239.816 184.925 239.885 184.85 239.937 184.762C239.989 184.675 240.021 184.577 240.032 184.476C244.72 136.652 232.176 95.0999 206.761 58.2791C206.699 58.1594 206.596 58.0662 206.471 58.0162ZM91.1898 159.278C80.1089 159.278 70.9685 149.242 70.9685 136.934C70.9685 124.617 79.9308 114.59 91.1898 114.59C102.533 114.59 111.589 124.701 111.411 136.934C111.411 149.251 102.449 159.278 91.1898 159.278ZM165.953 159.278C154.863 159.278 145.732 149.242 145.732 136.934C145.732 124.617 154.685 114.59 165.953 114.59C177.297 114.59 186.353 124.701 186.175 136.934C186.175 149.251 177.306 159.278 165.953 159.278Z" fill="black"/>
</svg>

<svg xmlns="http://www.w3.org/2000/svg" fill="none" viewBox="0 0 256 256"><path fill="#000" d="M206.471 58.016a187.3 187.3 0 0 0-45.796-13.988.7.7 0 0 0-.74.338c-1.969 3.464-4.163 7.98-5.7 11.547a173.8 173.8 0 0 0-51.439 0 116 116 0 0 0-5.785-11.547.72.72 0 0 0-.74-.357 187 187 0 0 0-45.796 13.998.66.66 0 0 0-.3.253c-29.174 42.952-37.17 84.842-33.242 126.207a.75.75 0 0 0 .29.516 187.7 187.7 0 0 0 56.183 27.977.73.73 0 0 0 .787-.244 130 130 0 0 0 11.494-18.429.693.693 0 0 0-.385-.976 124 124 0 0 1-17.549-8.243.705.705 0 0 1-.075-1.174 102 102 0 0 0 3.487-2.694.71.71 0 0 1 .732-.094c36.814 16.561 76.685 16.561 113.068 0a.7.7 0 0 1 .741.084 84 84 0 0 0 3.487 2.704.704.704 0 0 1-.056 1.174 115.7 115.7 0 0 1-17.559 8.233.7.7 0 0 0-.415.406.7.7 0 0 0 .031.58c3.375 6.45 7.237 12.59 11.484 18.42a.72.72 0 0 0 .787.263 187 187 0 0 0 56.267-27.987.7.7 0 0 0 .3-.507c4.688-47.824-7.856-89.376-33.271-126.197a.56.56 0 0 0-.29-.263M91.19 159.278c-11.081 0-20.221-10.036-20.221-22.344 0-12.317 8.962-22.344 20.22-22.344 11.344 0 20.4 10.111 20.222 22.344 0 12.317-8.962 22.344-20.221 22.344m74.763 0c-11.09 0-20.221-10.036-20.221-22.344 0-12.317 8.953-22.344 20.221-22.344 11.344 0 20.4 10.111 20.222 22.344 0 12.317-8.869 22.344-20.222 22.344"/></svg>
